X: 41
T:Seamus O'Brien
% Nottingham Music Database
S:Kevin Briggs
M:3/4
L:1/4
K:G
d|"G"edB|"G/b"G2A/2B/2|"C"EGE|"D7"D2E/2F/2|"G"GFG|"Em"edB|"Am"A2-"A7"A-|\
"D7"A2d/2d/2|
"G"edB|"G/b"GAB|"C"EGc|"C"e2f/2e/2|"G"dBG|"D7"AEF|"G"G3-|"G"G2"f#"d||
"Em"e3/2d/2e|"Em"gfe|"Bm"f3/2e/2d|"Bm"B2d|"Em"e3/2d/2e|"C"gfe|"Em"g3-|\
"C"g2g/2f/2|
"G"edB|"G/b"GAB|"C"EGc|"C"e2f/2e/2|"G"dBG|"D7"AEF|"G"G3-|"G"G2||<end>
<start>
